Rowaita/16x16/actions/edit-table-insert-column-left.svg

<?xml version="1.0" encoding="UTF-8" standalone="no"?>
<svg
   width="16"
   height="16"
   viewBox="0 0 16 16"
   version="1.1"
   id="svg7"
   sodipodi:docname="edit-table-insert-column-left.svg"
   xml:space="preserve"
   inkscape:version="1.2.1 (9c6d41e410, 2022-07-14)"
   xmlns:inkscape="http://www.inkscape.org/namespaces/inkscape"
   xmlns:sodipodi="http://sodipodi.sourceforge.net/DTD/sodipodi-0.dtd"
   xmlns="http://www.w3.org/2000/svg"
   xmlns:svg="http://www.w3.org/2000/svg"><sodipodi:namedview
     id="namedview9"
     pagecolor="#ffffff"
     bordercolor="#000000"
     borderopacity="0.25"
     inkscape:showpageshadow="2"
     inkscape:pageopacity="0.0"
     inkscape:pagecheckerboard="0"
     inkscape:deskcolor="#d1d1d1"
     showgrid="false"
     inkscape:zoom="22.693708"
     inkscape:cx="-3.5692712"
     inkscape:cy="1.8287007"
     inkscape:current-layer="svg7" /><defs
     id="defs3"><style
       id="current-color-scheme"
       type="text/css">
   .ColorScheme-Text { color:#444444; } .ColorScheme-Highlight { color:#4285f4; }
  </style><style
       id="current-color-scheme-5"
       type="text/css">
   .ColorScheme-Text { color:#444444; } .ColorScheme-Highlight { color:#4285f4; }
  </style></defs><g
     id="g626"><path
       id="path5"
       style="fill:#444444;fill-opacity:1"
       d="M 7 1 L 7 3 L 9 3 L 9 5 L 7 5 L 7 7 L 9 7 L 9 9 L 7 9 L 7 11 L 9 11 L 9 13 L 7 13 L 7 15 L 15 15 L 15 1 L 7 1 z M 11 3 L 13 3 L 13 5 L 11 5 L 11 3 z M 11 7 L 13 7 L 13 9 L 11 9 L 11 7 z M 11 11 L 13 11 L 13 13 L 11 13 L 11 11 z " /><path
       style="fill:#444444;fill-opacity:1"
       d="M 1,2 V 9 H 2.7188 L 2,8.2812 V 5.7188 L 2.2812,6 l 1,1 L 5,8.7188 V 9 H 6 V 2 H 5 V 3.2812 L 4.7188,3 l -1,-1 H 2.2812 l 1,1 L 5,4.7188 V 7.2812 L 4.7188,7 3.7188,6 2,4.2812 V 2 Z"
       id="path307" /><path
       d="m 5.0000097,10 h -1.000003 v 0.0052 c -0.265625,-0.0026 -0.5195319,0.06771 -0.7070319,0.190105 l -2.0000061,1.333337 c -0.39062495,0.260417 -0.39062495,0.682293 0,0.94271 l 2.0000061,1.333337 c 0.1875,0.122398 0.4414069,0.192711 0.7070319,0.192711 V 14 h 1.000003 z m 0,0"
       id="path4"
       style="fill:#444444;fill-opacity:1;stroke-width:0.816497" /></g></svg>

<svg xmlns="http://www.w3.org/2000/svg" width="16" height="16" viewBox="0 0 16 16">
 <defs>
  <style id="current-color-scheme" type="text/css">
   .ColorScheme-Text { color:#444444; } .ColorScheme-Highlight { color:#4285f4; }
  </style>
 </defs>
 <path style="fill:currentColor" class="ColorScheme-Text" d="m7 1v2h2v2h-2v2h2v2h-2v2h2v2h-2v2h8v-14h-8zm-6 1v7h1.7188l-0.7188-0.7188v-2.5624l0.2812 0.2812 1 1 1.7188 1.7188v0.2812h1v-7h-1v1.2812l-0.2812-0.2812-1-1h-1.4376l1 1 1.7188 1.7188v2.5624l-0.2812-0.2812-1-1-1.7188-1.7188v-2.2812h-1zm10 1h2v2h-2v-2zm0 4h2v2h-2v-2zm-6 3l-4 2 4 2v-4zm6 1h2v2h-2v-2z"/>
</svg>
